icons/chevron/horizontal.svg

<svg width="32" height="32" viewBox="0 0 32 32" fill="none" xmlns="http://www.w3.org/2000/svg">
<path fill-rule="evenodd" clip-rule="evenodd" d="M11.9597 8.62624L5.29304 15.2929L4.58594 16L5.29304 16.7071L11.9597 23.3738L13.3739 21.9596L7.41436 16L13.3739 10.0404L11.9597 8.62624ZM18.6264 10.0404L24.5859 16L18.6264 21.9596L20.0406 23.3738L26.7073 16.7071L27.4144 16L26.7073 15.2929L20.0406 8.62624L18.6264 10.0404Z" fill="black"/>
</svg>

<svg width="32" height="32" viewBox="0 0 32 32" xmlns="http://www.w3.org/2000/svg">
    <path fill-rule="evenodd" d="M11.96 8.626l-6.667 6.667-.707.707.707.707 6.667 6.667 1.414-1.414L7.414 16l5.96-5.96-1.414-1.414zm6.666 1.414l5.96 5.96-5.96 5.96 1.415 1.414 6.666-6.667.707-.707-.707-.707-6.666-6.667-1.415 1.414z"/>
</svg>
